X: 1
T: Tune for Tony
T: in memory of Tony Cuffe
C: Phil Cunningham and John McCusker
R: waltz
Z: 2011 John Chambers <jc:trillian.mit.edu>
S: printed MS of unknown origin
M: 3/4
L: 1/8
K: G
DGA |\
"G"B3cd2 | "D"A2G3A | "Em"B2g3f | "C"e2d2GA |\
"G"B3cd2 |"D"A2G3D | "Am"E2c3B | "D"B2A2GF |
"Em"E3FGA | "D/F"A2G3A | "G"B2g3a | "C"g3fe2 |\
"G"dG3Bc | "D"Ad3A/G/F | "C"G6- | "G"G2z :|
|: ABd |\
"C"g2c3B | "D"A4af | "Em"g2B3c | "Bm"d4ga |\
"G"b2d2b2 | "D"a4(3agf | "C"g2c3B | "D"A3DGF |
"C"E2c3F | "D"A2G3A | "Em"B2g3a | "C"g4fe |\
"G"dG3Bc | "D"Ad3A/G/F | "C"G6- | "G"G2z :|
